azure-docs/api_weblanguagemodel.svg

<?xml version="1.0" encoding="UTF-8"?>
<svg width="512px" height="512px" viewBox="0 0 512 512" version="1.1" xmlns="http://www.w3.org/2000/svg" xmlns:xlink="http://www.w3.org/1999/xlink">
    <!-- Generator: Sketch 46.2 (44496) - http://www.bohemiancoding.com/sketch -->
    <title>webLanguageMode-wht-bluBG-512p</title>
    <desc>Created with Sketch.</desc>
    <defs></defs>
    <g id="PRODUCTION-ICONS" stroke="none" stroke-width="1" fill="none" fill-rule="evenodd">
        <g id="webLanguageMode-wht-bluBG-512p">
            <g id="Web-Language-Model-API">
                <rect id="Rectangle-3-Copy-15" fill="#0063B1" x="0" y="0" width="512" height="512"></rect>
                <path d="M204.8,182.044444 L204.8,211.196863 L104.957425,260.917327 L104.957425,261.531727 L204.8,306.641319 L204.8,335.644444 L68.2666667,269.817514 L68.2666667,253.550269 L204.8,182.044444 Z M307.2,182.044444 L443.733333,253.464138 L443.733333,269.748609 L307.2,335.644444 L307.2,306.618351 L407.188033,261.916444 L407.188033,260.991973 L307.2,211.225573 L307.2,182.044444 Z" id="Combined-Shape" fill="#FFFFFF"></path>
            </g>
        </g>
    </g>
</svg>

<svg width="512" height="512" xmlns="http://www.w3.org/2000/svg"><g fill="none" fill-rule="evenodd"><path fill="#0063B1" d="M0 0h512v512H0z"/><path d="M204.8 182.044v29.153l-99.843 49.72v.615l99.843 45.11v29.002L68.267 269.818V253.55L204.8 182.044zm102.4 0l136.533 71.42v16.285L307.2 335.644v-29.026l99.988-44.702v-.924L307.2 211.226v-29.182z" fill="#FFF"/></g></svg>
